app/dist/common/images/dai-nippon-printing.svg

<svg height="18" viewBox="0 0 18 18" width="18" xmlns="http://www.w3.org/2000/svg"><path d="m0 0h18v18h-18z" fill="#1432aa"/><path d="m2 11.5h2.26c1.37-.05 2.14-1.22 2.14-2.5 0-1.3-.77-2.46-2.14-2.5h-2.26zm2.13-1.07h-1.13v-2.86h1l.1.01h.03c.66.04 1.24.65 1.24 1.43 0 .77-.58 1.38-1.24 1.42zm6.87-3.93h-1v3l-1.9-3h-1.1v5h1v-2.87l1.9 2.87h1.1zm3.53 0h-2.53v5h1v-1.5h1.37c1.28-.08 1.63-.97 1.63-1.67s-.2-1.75-1.47-1.82zm-.33 1.07c.42 0 .8.2.8.72 0 .37-.21.65-.53.71h-1.47v-1.43z" fill="#fff"/></svg>

<!-- by TradingView --><svg xmlns="http://www.w3.org/2000/svg" width="18" height="18" viewBox="0 0 18 18"><path fill="#1432AA" d="M0 0h18v18H0z"/><path d="M2 11.5H4.26C5.63 11.45 6.4 10.28 6.4 9c0-1.3-.77-2.46-2.14-2.5H2v5Zm2.13-1.07H3V7.57h1l.1.01h.03c.66.04 1.24.65 1.24 1.43 0 .77-.58 1.38-1.24 1.42ZM11 6.5h-1v3l-1.9-3H7v5h1V8.63l1.9 2.87H11v-5Zm3.53 0H12v5h1V10H14.37C15.65 9.92 16 9.03 16 8.33s-.2-1.75-1.47-1.82Zm-.33 1.07c.42 0 .8.2.8.72 0 .37-.21.65-.53.71H13V7.57h1.2Z" fill="#fff"/></svg>
